projects/oblique/icons/Globe.svg

<?xml version="1.0" encoding="UTF-8"?><svg id="a" xmlns="http://www.w3.org/2000/svg" viewBox="0 0 24 24"><path d="M11.99973,1.25033C6.07297,1.25033,1.2507,6.07259,1.2507,12.00033c0,5.92676,4.82227,10.74902,10.74902,10.74902,5.92773,0,10.75-4.82227,10.75-10.74902,0-5.92773-4.82227-10.75-10.75-10.75ZM21.2117,11.25033h-3.50568c-.0802-1.47852-.38397-2.90918-.90015-4.23535.69995-.35059,1.35938-.7832,1.97443-1.28516,1.36761,1.47754,2.2597,3.39648,2.4314,5.52051ZM12.74973,3.56185c.80695.75098,1.48773,1.65234,2.03406,2.65332-.65723.20703-1.33777.34277-2.03406.39941v-3.05273ZM14.36075,3.06771c1.21991.32227,2.34039.88574,3.30878,1.63965-.46667.36328-.96326.67871-1.48413.94336-.50085-.94922-1.11523-1.81543-1.82465-2.58301ZM11.24973,3.56185v3.05273c-.69617-.05664-1.37659-.19238-2.03375-.39941.54614-1.00098,1.22687-1.90234,2.03375-2.65332ZM7.81479,5.65072c-.52094-.26465-1.01746-.58008-1.48419-.94336.96838-.75391,2.08875-1.31738,3.30859-1.63965-.70935.76758-1.32361,1.63379-1.8244,2.58301ZM11.24973,8.11458v3.13574h-3.45587c.07745-1.28223.3421-2.52148.7854-3.66895.85864.28809,1.75336.46973,2.67047.5332ZM11.24973,12.75033v3.13477c-.91724.06348-1.81201.24512-2.67072.5332-.44318-1.14746-.7077-2.38672-.78516-3.66797h3.45587ZM11.24973,17.38509v3.05371c-.80701-.75195-1.48785-1.65234-2.03406-2.6543.65717-.20703,1.33771-.34277,2.03406-.39941ZM9.63919,20.93294c-1.21991-.32324-2.34045-.88574-3.3089-1.64062.46661-.36328.9632-.67871,1.48419-.94336.50085.94922,1.11523,1.81543,1.82471,2.58398ZM12.74973,20.4388v-3.05371c.69635.05664,1.37701.19238,2.0343.39941-.54633,1.00195-1.22723,1.90234-2.0343,2.6543ZM16.18558,18.34896c.52094.26465,1.01758.58008,1.48425.94336-.96851.75488-2.08905,1.31738-3.30908,1.64062.70947-.76855,1.32397-1.63477,1.82483-2.58398ZM12.74973,15.88509v-3.13477h3.45685c-.07751,1.28125-.34229,2.52051-.78571,3.66797-.85876-.28809-1.75378-.46973-2.67114-.5332ZM12.74973,11.25033v-3.13574c.9173-.06445,1.81226-.24512,2.67096-.5332.44354,1.14746.70837,2.38672.78589,3.66895h-3.45685ZM5.21994,5.72982c.61523.50195,1.2746.93555,1.97443,1.28516-.51605,1.32617-.81976,2.75684-.89996,4.23535h-3.50568c.17169-2.12402,1.06372-4.04297,2.43121-5.52051ZM2.78873,12.75033h3.50568c.0802,1.47754.38379,2.9082.89972,4.23438-.70007.34961-1.35938.7832-1.97443,1.28516-1.36731-1.47754-2.25928-3.39648-2.43097-5.51953ZM18.78055,18.26986c-.61511-.50098-1.27454-.93457-1.97449-1.28516.51611-1.32617.81976-2.75684.89996-4.23438h3.50568c-.17169,2.12305-1.06366,4.04199-2.43115,5.51953Z"/></svg>

<svg xmlns="http://www.w3.org/2000/svg" viewBox="0 0 24 24"><title>Globe</title><path d="M11.99973,1.25033a10.74951,10.74951,0,1,0,10.75,10.75A10.76176,10.76176,0,0,0,11.99973,1.25033Zm9.212,10H17.706A13.72632,13.72632,0,0,0,16.80588,7.015,10.7149,10.7149,0,0,0,18.7803,5.72982,9.20359,9.20359,0,0,1,21.2117,11.25033Zm-8.462-7.68848a10.44667,10.44667,0,0,1,2.03405,2.65332,9.26375,9.26375,0,0,1-2.03405.39941Zm1.611-.49414a9.21238,9.21238,0,0,1,3.30878,1.63965,9.19951,9.19951,0,0,1-1.48414.94336A12.16739,12.16739,0,0,0,14.36075,3.06771Zm-3.111.49414V6.61458A9.26189,9.26189,0,0,1,9.216,6.21517,10.44292,10.44292,0,0,1,11.24973,3.56185ZM7.81479,5.65072A9.1995,9.1995,0,0,1,6.3306,4.70736,9.21193,9.21193,0,0,1,9.63919,3.06771,12.1664,12.1664,0,0,0,7.81479,5.65072Zm3.43494,2.46386v3.13575H7.79385a12.23012,12.23012,0,0,1,.7854-3.66895A10.711,10.711,0,0,0,11.24973,8.11458Zm0,4.63575v3.13476a10.71311,10.71311,0,0,0-2.67072.5332,12.23338,12.23338,0,0,1-.78516-3.668Zm0,4.63476V20.4388a10.44735,10.44735,0,0,1-2.03406-2.65429A9.26178,9.26178,0,0,1,11.24973,17.38509ZM9.63919,20.93294a9.21555,9.21555,0,0,1-3.3089-1.64062A9.19251,9.19251,0,0,1,7.81448,18.349,12.19679,12.19679,0,0,0,9.63919,20.93294Zm3.11054-.49414V17.38509a9.26538,9.26538,0,0,1,2.0343.39942A10.45,10.45,0,0,1,12.74973,20.4388ZM16.18558,18.349a9.19784,9.19784,0,0,1,1.48425.94336,9.21588,9.21588,0,0,1-3.30908,1.64062A12.19729,12.19729,0,0,0,16.18558,18.349Zm-3.43585-2.46387V12.75033h3.45684a12.22805,12.22805,0,0,1-.7857,3.668A10.716,10.716,0,0,0,12.74973,15.88509Zm0-4.63476V8.11458a10.75779,10.75779,0,0,0,2.671-.5332,12.22414,12.22414,0,0,1,.78589,3.669ZM5.21994,5.72982A10.67518,10.67518,0,0,0,7.19437,7.015a13.72934,13.72934,0,0,0-.9,4.23536H2.78873A9.20414,9.20414,0,0,1,5.21994,5.72982ZM2.78873,12.75033H6.2944a13.73277,13.73277,0,0,0,.89972,4.23437A10.66069,10.66069,0,0,0,5.2197,18.26986,9.20482,9.20482,0,0,1,2.78873,12.75033Zm15.99182,5.51953a10.76827,10.76827,0,0,0-1.97449-1.28516,13.72778,13.72778,0,0,0,.9-4.23437H21.2117A9.204,9.204,0,0,1,18.78055,18.26986Z" fill="#171717"/></svg>
